X:9
T: Virágos kenderem...
O: Csíkszentmihály, ?, 1907
M:2/4
L:1/4
Q:"Allegretto"
K:Eb
G/G/g | f/fd/ | 
f/e/d | c/BF/ | 
G/G/B | c/BG/ | 
F/F/c | G/GG/ | 

